component-icons/svg/contextmenu.svg

<?xml version="1.0" encoding="utf-8"?>
<!-- Generator: Adobe Illustrator 24.2.3, SVG Export Plug-In . SVG Version: 6.00 Build 0)  -->
<svg version="1.1" id="Layer_1" xmlns="http://www.w3.org/2000/svg" xmlns:xlink="http://www.w3.org/1999/xlink" x="0px" y="0px"
	 width="24px" height="24px" viewBox="0 0 24 24" enable-background="new 0 0 24 24" xml:space="preserve">
<path d="M9,12H4v2h3L9,12z M9,8H4v2h3L9,8z M9,4H4v2h3L9,4z M13,4V0H0v19h9l2-2v7h9l4-4V4H13z M11,14.2L8.2,17H2V2h9V14.2z M22,19.2
	L19.2,22H13V6h9V19.2z M20,16h-5v2h3L20,16z M20,8h-5v2h3L20,8z M20,12h-5v2h3L20,12z"/>
</svg>

<svg id="Layer_1" data-name="Layer 1" xmlns="http://www.w3.org/2000/svg" viewBox="0 0 24 24">
  <defs>
    <style>
      .cls-1 {
        fill: gray;
      }
    </style>
  </defs>
  <path class="cls-1" d="M9,12H4v2H7ZM9,8H4v2H7ZM9,4H4V6H7Zm4,0V0H0V19H9l2-2v7h9l4-4V4ZM11,14.17,8.17,17H2V2h9Zm11,5L19.17,22H13V6h9ZM20,16H15v2h3Zm0-8H15v2h3Zm0,4H15v2h3Z"/>
</svg>
